X: 2162
T: Şehnâzbûselik Örnek-öz
C: Hüseyin Sadettin Arel
O: Turkey
F: http://compmusic.upf.edu/node/140
N: sehnazbuselik--ornek-oz--sofyan--1--huseyin_sadettin_arel
N: makam= sehnazbuselik
N: form= ornek-oz
N: usul= sofyan = 4/4
M: 4/4
L: 1/16
K: C    
Q: 1/4=120
%%MIDI tuningsystem comma53
a3^g a2 c'2  | b4 e'4  | d'2 c'2 b2 c'2  | \
w:   |   |   | 
a4 b4  | ^g6 f2  | e6 z2  | d3e f2 d2  | e4 c4  | 
w:   |   |   |   |   | 
B2 f2 e2 d2  | c3B A2 B2  | ^G6 A2  | A8  | |


